!!!!SEGMENT: pl-sa--371-a-viii-11--001_anonim--pasterze-mili-coscie-widzieli.krn
!!!cenid: 17xx:1732
!!!COM: Anonim
!!!COM-rismID: pe30004985
!!!CDT:
!!!CNT:
!!!OTL: Pasterze mili coście widzieli
!!!PDT:
!!!AGN: Sacred
!!!YEC: Copyright 2022 Narodowy Instytut Fryderyka Chopina (https://polishscores.org)
!!!YEM: License CC-BY-4.0 (https://creativecommons.org/licenses/by/4.0)
!!!SMS-siglum: PL-SA
!!!SMS-shelfmark: 371/A VIII 11
!!!SMS-shelfwork: 001 W
!!!SMS-variant:
!!!SMS-altvar:
!!!NIFC-rismSourceID: 1001041390
!!!NIFC-rismChildID: 1001041390
!!!NIFC-islandoraID: none
!!!URL-pdf-islandora:
!!!URL-scan: https://bc.bdsandomierz.pl/dlibra/publication/1675/edition/1643/content @EN{Scan in the Sandomierz Diocese Digital Library} @PL{Skany w portalu Cyfrowa Biblioteka Diecezjalna w Sandomierzu}
!!!IIIF:
!!!ONB-nifc: UWAGA: utwory w zbiorze: 1. Pasterze mili, coście widzieli, 2. Bóg się rodzi, 3. Grates nunc omnes reddamus
!!!AIN: 1 organ 1 soprn 2 violn
!!!key: B-
**kern	**kern	**kern	**kern	**text
*group3	*group2	*group2	*group1	*
*part4	*part3	*part2	*part1	*
*staff4	*staff3	*staff2	*staff1	*
*I"Baſso.	*I"Violino 2do.	*I"Violino Primo	*I"Canto.	*
*I'b	*I'vl 2	*I'vl 1	*I'S	*
*Iorgan	*Ivioln	*Ivioln	*Isoprn	*
*ICklav	*ICstr	*ICstr	*ICvox	*
*clefF4	*clefG2	*clefG2	*clefC1	*
*k[e-b-]	*k[b-e-]	*k[b-e-]	*k[b-e-]	*
*B-:	*B-:	*B-:	*B-:	*
*M3/8	*M3/8	*M3/8	*M3/8	*
=1	=1	=1	=1	=1
!LO:TX:a:B:t=Adagio	!LO:TX:a:B:t=Adagio	!LO:TX:a:B:t=Adagio	!LO:TX:a:B:t=Adagio	!
8BB-/L	8dd\L	8ff\L	8ff\	Pa-
8D/	8.dd\	8.ff\	8.ff\	-ste-
8F/J	.	.	.	.
!	!	!	!LO:N:vis=8	!
.	16cc\Jk	16een\Jk	16een\	-rze
=2	=2	=2	=2	=2
!LO:TX:t=P:problem=mixed beam	!	!	!	!
8B-\L	32ee-\LLL	32gg\LLL	(32gg\LLL	mi-
.	32dd\	32ff\	32ff\	.
.	32cc\	32een\	32een\	.
.	32dd\JJJ	32ff\JJJ	32ff\JJJ)	.
8F\	4b-\	4dd\	4dd\	-li
8BB-/J	.	.	.	.
=3	=3	=3	=3	=3
8F\L	16dd\LL	16ff\LL	16ff\LL	co-
.	16cc\JJ	16ee-\JJ	16ee-X\JJ	.
!	!LO:TX:t=P:problem=mixed beam	!	!	!
8F\	8.cc\L	8.ee-\L	8.ee-\L	-scie
8F\J	.	.	.	.
.	16e-/Jk	16cc\Jk	16cc\Jk	wi-
=4	=4	=4	=4	=4
8r	16e-/LL	16cc\LL	16cc\LL	-dzie-
.	16f/J	16dd\J	16dd\JJ	.
!LO:TX:t=P:problem=mixed beam	!	!	!	!
8B-\L	8d/J	8b-\J	8b-\	-li
8BB-/J	8r	8r	8r	.
=5:|!|:	=5:|!|:	=5:|!|:	=5:|!|:	=5:|!|:
8c\L	(16e-/LL	16ee-\LL	16ee-\LL	Wi-
.	16f/	16dd\J	16dd\JJ	-dzie-
8A\	16e-/	8ee-\	8ee-\L	-li-
.	16f/	.	.	.
8F\J	16e-/	8ee-\J	8ee-\J	-smy
.	16f/JJ)	.	.	.
!	!	!	!LO:LB:g=original	!
=6	=6	=6	=6	=6
!LO:TX:t=P:problem=mixed beam	!	!	!	!
8B-\L	(16d/LL	16dd\LL	16dd\LL	ma-
.	16f/	16cc\J	16cc\JJ	-leń-
8F\	16d/	8dd\	8dd\L	-kie-
.	16f/	.	.	.
8BB-/J	16d/	8dd\J	8dd\J	-go
.	16f/JJ)	.	.	.
=7	=7	=7	=7	=7
!LO:TX:t=P:problem=mixed beam	!	!	!	!
8F\L	(16c/LL	16cc\LL	16cc\LL	Je-
.	16e-/	16b-\J	16b-\JJ	-zu-
8FF/	16c/	8cc\	8cc\L	-sa
.	16e-/	.	.	.
8FF/J	16c/	8cc\J	8cc\J	na-
.	16e-/JJ)	.	.	.
!LO:LB:g=original	!	!	!	!
=8	=8	=8	=8	=8
*	*^	*	*	*
8r	8a/L	8f\L	16b-\LL	16b-\LL	-ro-
.	.	.	16a\	16a\JJ	-dzo-
!LO:TX:t=P:problem=mixed beam	!	!	!	!	!
8F\L	8a/	8f\	16g\	16g/LL	-ne-
.	.	.	16a\J	16a/JJ	-go
8FF/J	8a/J	8f\J	8f\J	8f/	.
*	*v	*v	*	*	*
!	!LO:LB:g=original	!LO:LB:g=original	!	!
=9	=9	=9	=9	=9
8F\L	16cc\LL	16een\LL	16een\LL	Sy-
.	16dd\JJ	16ff\JJ	16ff\JJ	-na
8F\	8e-/L	8cc\L	8cc\L	Bo-
8F\J	16e-/L	16cc\L	16cc\L	-ze-
.	16f/JJ	16dd\JJ	16dd\JJ	.
=10	=10	=10	=10	=10
4BB-/	4d/	4b-\	4b-\	-go.
8r	8r	8r	8r	.
=:||	=:||	=:||	=:||	=:||
*-	*-	*-	*-	*-
!!!system-decoration: [g1][g2]g3
!!!RDF**kern: > = above
!!!RDF**kern: < = below
!!!ENC: Katarzyna Serwa
!!!END: 2021-12-30
!!!ENC: Marcin Jachim
!!!END: 2021-01-05
